flags/yu.svg

<svg width="512" height="512" viewBox="0 0 512 512" fill="none" xmlns="http://www.w3.org/2000/svg">
<rect x="512" y="376" width="512" height="240" transform="rotate(-180 512 376)" fill="var(--flag-palette-white, #eeeeee)"/>
<rect x="512" y="168" width="512" height="168" transform="rotate(-180 512 168)" fill="var(--flag-palette-blue, #0052b4)"/>
<rect x="512" y="512" width="512" height="168" transform="rotate(-180 512 512)" fill="var(--flag-palette-bright-red, #d80027)"/>
<path d="M256 66L298.657 197.287H436.7L325.021 278.426L367.679 409.713L256 328.574L144.32 409.713L186.978 278.426L75.2988 197.287H213.342L256 66Z" fill="var(--flag-palette-bright-red, #d80027)"/>
<path fill-rule="evenodd" clip-rule="evenodd" d="M298.657 197.287L256 66L213.342 197.287H75.2988L186.978 278.426L144.32 409.713L256 328.574L367.679 409.713L325.021 278.426L436.7 197.287H298.657ZM375.147 217.287H284.126L256 130.721L227.873 217.287H136.853L210.489 270.787L182.363 357.353L256 303.852L329.637 357.353L301.51 270.787L375.147 217.287Z" fill="var(--flag-palette-dark-yellow, #ffc635)"/>
</svg>

<svg xmlns="http://www.w3.org/2000/svg" width="512" height="512" fill="none"><g clip-path="url(#a)"><path fill="#EEE" d="M512 376H0V136h512z"/><path fill="var(--flag-palette-blue, #0052b4)" d="M512 168H0V0h512z"/><path fill="var(--flag-palette-bright-red, #d80027)" d="M512 512H0V344h512z"/><path fill="var(--flag-palette-bright-red, #d80027)" d="m256 66 42.7 131.3h138L325 278.4l42.7 131.3L256 328.6l-111.7 81.1L187 278.4 75.3 197.3h138z"/><path fill="var(--flag-palette-dark-yellow, #ffc635)" fill-rule="evenodd" d="M298.7 197.3 256 66l-42.7 131.3h-138L187 278.4l-42.7 131.3L256 328.6l111.7 81.1L325 278.4l111.7-81.1zm76.4 20h-91L256 130.7l-28.1 86.6h-91l73.6 53.5-28.1 86.6 73.6-53.5 73.6 53.5-28-86.6z" clip-rule="evenodd"/></g><defs><clipPath id="a"><path fill="#fff" d="M0 0h512v512H0z"/></clipPath></defs></svg>
